common/icons/svgs/under_construction.svg

<svg xmlns="http://www.w3.org/2000/svg" width="24" height="24" viewBox="0 0 24 24">
  <g fill="none" fill-rule="evenodd" transform="translate(-360 -360)">
    <rect width="504" height="450" fill="#FFF"/>
    <g transform="translate(360 360)">
      <rect width="24" height="24"/>
      <path fill="#000" fill-rule="nonzero" d="M22.08,6.4704 L18.6048,2.976 C18.2339536,2.62247599 17.6508464,2.62247599 17.28,2.976 L11.1648,9.0528 L9.1488,7.0272 L10.56,5.6544 C10.9322147,5.27996404 10.9322147,4.67523596 10.56,4.3008 L7.3152,1.0944 C6.94076404,0.722185349 6.33603596,0.722185349 5.9616,1.0944 L2.2272,4.8 C0.995154092,6.03814906 0.246117164,7.67581617 0.1152,9.4176 C0.120880689,10.8060272 0.701256208,12.1301175 1.7184,13.0752 C2.09283596,13.4474147 2.69756404,13.4474147 3.072,13.0752 L5.376,10.8 L7.4016,12.8256 L3.504,16.7232 L3.504,16.7232 C3.42867164,16.8249267 3.36431368,16.9343352 3.312,17.0496 L3.312,17.0496 L1.8432,22.08 C1.8432,22.08 1.8432,22.128 1.8432,22.1568 C1.82241879,22.2839565 1.82241879,22.4136435 1.8432,22.5408 C1.8432,22.5408 1.8432,22.5888 1.8432,22.6176 C1.8597995,22.6572461 1.87904279,22.6957327 1.9008,22.7328 C1.94417627,22.8513674 2.01682778,22.9570423 2.112,23.04 L2.1792,23.1072 C2.27080735,23.1798534 2.37491615,23.2351612 2.4864,23.2704 L2.4864,23.2704 C2.57240271,23.2821176 2.65959729,23.2821176 2.7456,23.2704 L2.7456,23.2704 C2.83160271,23.2821176 2.91879729,23.2821176 3.0048,23.2704 L7.9104,21.8592 L7.9104,21.8592 C8.02569805,21.8069505 8.13511319,21.7425886 8.2368,21.6672 L8.2368,21.6672 L12.1344,17.7696 L17.6736,23.3088 C18.048036,23.6810147 18.652764,23.6810147 19.0272,23.3088 L21.4368,20.8992 C21.8090147,20.524764 21.8090147,19.920036 21.4368,19.5456 L15.8976,14.0064 L22.08,7.824 C22.4522147,7.44956404 22.4522147,6.84483596 22.08,6.4704 Z M2.4768,10.9824 C2.18937402,10.5250783 2.03634901,9.996144 2.0352,9.456 C2.16106238,8.22020808 2.70655421,7.06484961 3.5808,6.1824 L6.6336,3.1296 L8.4864,4.9728 L2.4768,10.9824 Z M6.72,9.4368 L7.776,8.3808 L9.8016,10.4064 L8.7456,11.4624 L6.72,9.4368 Z M7.152,19.9968 L4.1568,20.8608 L5.0208,17.8656 L5.5008,17.3856 L7.68,19.5552 L7.152,19.9968 Z M19.5168,20.16 L18.4608,21.216 L13.6128,16.32 L14.6688,15.264 L19.5168,20.16 Z M9.0144,18.24 L6.8736,16.0608 L15.264,7.68 L17.4048,9.8208 L9.0144,18.24 Z M18.7584,8.4576 L16.6176,6.3168 L17.9232,5.0112 L20.064,7.1424 L18.7584,8.4576 Z"/>
    </g>
  </g>
</svg>

<svg xmlns="http://www.w3.org/2000/svg" viewbox="0 0 24 24"><path class="icon__shape" fill-rule="nonzero" d="M22.08 6.47l-3.475-3.494a.96.96 0 0 0-1.325 0l-6.115 6.077-2.016-2.026 1.411-1.373a.96.96 0 0 0 0-1.353L7.315 1.094a.96.96 0 0 0-1.353 0L2.227 4.8A7.325 7.325 0 0 0 .115 9.418a5.02 5.02 0 0 0 1.603 3.657.96.96 0 0 0 1.354 0L5.376 10.8l2.026 2.026-3.898 3.897c-.075.102-.14.211-.192.327l-1.469 5.03v.077a1.19 1.19 0 0 0 0 .384v.077a.96.96 0 0 0 .058.115.749.749 0 0 0 .211.307l.067.067a.96.96 0 0 0 .307.163.96.96 0 0 0 .26 0 .96.96 0 0 0 .259 0l4.905-1.41c.116-.053.225-.117.327-.193l3.897-3.897 5.54 5.539a.96.96 0 0 0 1.353 0l2.41-2.41a.96.96 0 0 0 0-1.353l-5.54-5.54 6.183-6.182a.96.96 0 0 0 0-1.354zM2.477 10.982a2.88 2.88 0 0 1-.442-1.526 5.434 5.434 0 0 1 1.546-3.274L6.634 3.13l1.852 1.843-6.01 6.01zM6.72 9.437L7.776 8.38l2.026 2.025-1.056 1.056L6.72 9.437zm.432 10.56l-2.995.864.864-2.995.48-.48 2.179 2.17-.528.44zm12.365.163l-1.056 1.056-4.848-4.896 1.056-1.056 4.848 4.896zM9.014 18.24l-2.14-2.18 8.39-8.38 2.14 2.14-8.39 8.42zm9.744-9.782l-2.14-2.141 1.305-1.306 2.141 2.131-1.306 1.316z"/></svg>
